dist/icons/svgs/taxi-solid.svg

<svg xmlns="http://www.w3.org/2000/svg" width="24" height="24" fill="currentcolor" class="icon-taxi-solid" viewBox="0 0 24 24">
  <path d="M9.5 2H14.5C15.1641 2 15.75 2.58594 15.75 3.25V4.5C15.75 4.53906 15.75 4.53906 15.75 4.53906C17.2344 4.61719 18.5625 5.59375 19.0703 7.03906L20.4375 10.9453C21.3359 11.3359 22 12.2344 22 13.25V18.875V20.75C22 21.4531 21.4141 22 20.75 22H19.5C18.7969 22 18.25 21.4531 18.25 20.75V18.875H5.75V20.75C5.75 21.4531 5.16406 22 4.5 22H3.25C2.54688 22 2 21.4531 2 20.75V18.875V13.25C2 12.2344 2.625 11.3359 3.52344 10.9453L4.89062 7.03906C5.39844 5.59375 6.72656 4.61719 8.25 4.53906C8.25 4.53906 8.25 4.53906 8.25 4.5V3.25C8.25 2.58594 8.79688 2 9.5 2ZM8.44531 7C7.89844 7 7.42969 7.35156 7.27344 7.85938L6.25781 10.75H17.7031L16.6875 7.85938C16.5312 7.35156 16.0625 7 15.5156 7H8.44531ZM5.75 13.25C5.04688 13.25 4.5 13.8359 4.5 14.5C4.5 15.2031 5.04688 15.75 5.75 15.75C6.41406 15.75 7 15.2031 7 14.5C7 13.8359 6.41406 13.25 5.75 13.25ZM17 14.5C17 15.2031 17.5469 15.75 18.25 15.75C18.9141 15.75 19.5 15.2031 19.5 14.5C19.5 13.8359 18.9141 13.25 18.25 13.25C17.5469 13.25 17 13.8359 17 14.5Z"/>
</svg>

<svg xmlns="http://www.w3.org/2000/svg" width="24" height="24" fill="currentColor" class="icon-taxi-solid" viewBox="0 0 24 24">
  <path d="M9.5 2h5c.664 0 1.25.586 1.25 1.25v1.29a3.74 3.74 0 0 1 3.32 2.5l1.367 3.905c.899.39 1.563 1.29 1.563 2.305v7.5c0 .703-.586 1.25-1.25 1.25H19.5c-.703 0-1.25-.547-1.25-1.25v-1.875H5.75v1.875c0 .703-.586 1.25-1.25 1.25H3.25C2.547 22 2 21.453 2 20.75v-7.5a2.53 2.53 0 0 1 1.523-2.305L4.891 7.04a3.75 3.75 0 0 1 3.359-2.5V3.25C8.25 2.586 8.797 2 9.5 2M8.445 7a1.22 1.22 0 0 0-1.172.86l-1.015 2.89h11.445l-1.015-2.89A1.22 1.22 0 0 0 15.516 7zM5.75 13.25c-.703 0-1.25.586-1.25 1.25 0 .703.547 1.25 1.25 1.25.664 0 1.25-.547 1.25-1.25 0-.664-.586-1.25-1.25-1.25M17 14.5c0 .703.547 1.25 1.25 1.25.664 0 1.25-.547 1.25-1.25 0-.664-.586-1.25-1.25-1.25-.703 0-1.25.586-1.25 1.25"/>
</svg>
